X: 122
T:Hexham Races
% Nottingham Music Database
S:Kevin Briggs, via EF
M:6/8
K:G
P:A
d/2B/2|"G"GBd gdB|"D7"ded d2B|"G"GBd gdB|"Am"ABA "D7"A2B|
"G"GBd gdB|"D"def "C"gfe|"G/d"dcB "D7"cBA|"G"GAG G2:|
P:B
d|"G"g2d edB|"D7"ded def|"G"g2d edB|"Am"ABA "D7"A3|
"G"g2d edB|"D"def "C"gfe|"G/d"dcB "D7"cBA|"G"GAG G2:|<end>
<start>
